X:1
T:Title
%%score { ( 1 3 ) | ( 2 4 ) }
L:1/8
M:3/4
K:C
V:1 treble nm="Grand Piano"
V:3 treble 
V:2 bass 
V:4 bass 
V:1
 z2 z2[Q:1/4=92] [EG][EG] | [EG]2 [CE]2 [_EA]2 | [EG]4 [EG][EG] | [EA]2 [EB]2 [Ec]2 | d4 GG | %5
 [Ee]2 [Ec]2 [EB]2 | [^FA]4 [Fd][Fd] | e2 d2 ^c2 | d4 GG | [EG]2 [EG]2 [EG]2 | B2 z2 z2 | %11
 [CEc]2 [CGc]2 [C^Gc]2 | e2 d2 [Ad][Ad] | [^Fd]2 [CFc]2 [CFA]2 | [CEA]2 [CEG]2 [CE]2 | %15
 [B,FA]2 [B,EG]2 [G,DF]2 | [G,CE]4 [B,FG][B,FG] | [EG]2 [EG]2 [EG]2 | B2 z2 z2 | %19
 [CEc]2 [CGc]2 [C^Gc]2 | e2 d2 [Ad][Ad] | [^Fd]2 [Fc]2 [FA]2 | A2 G2 E2 | [B,G]2 [B,D]2 [B,E]2 | %24
[M:2/4] C4 |] %25
V:2
 z2 z2 [C,G,][C,G,] | [C,G,]2 [C,G,]2 [C,^F,]2 | [C,G,]4 [C,C][C,C] | [C,C]2 [C,G,]2 [C,G,]2 | %4
 [G,B,F]4 [G,DF][G,DF] | [C,C]2 [C,C]2 [C,C]2 | [D,C]4 [D,C][D,C] | [G,B,F]2 [G,B,F]2 [G,_B,F]2 | %8
 [G,B,F]4 [G,B,F][G,B,F] | [C,C]2 [C,C]2 [C,C]2 | z2 A2 D,D, | E,2 E,2 E,2 | [F,C]4 [F,C][F,C] | %13
 [D,C]2 D,2 D,2 | G,2 G,2 G,2 | G,,2 G,,2 G,,2 | C,4 G,G, | [C,C]2 [C,C]2 [C,C]2 | z2 A2 D,D, | %19
 E,2 E,2 E,2 | [F,C]4 [F,C][F,C] | [D,C]2 [D,C]2 [D,C]2 | [G,CE]2 [G,CE]2 [G,C]2 | %23
 [G,,F,]2 [G,,F,]2 [G,,F,]2 |[M:2/4] [C,E,]4 |] %25
V:3
 x6 | x6 | x6 | x6 | x6 | x6 | x6 | x6 | x6 | x6 | F4 [B,FG][B,FG] | x6 | A4 z2 | x6 | x6 | x6 | %16
 x6 | x6 | F4 [B,FG][B,FG] | x6 | A4 z2 | x6 | x6 | x6 |[M:2/4] x4 |] %25
V:4
 x6 | x6 | x6 | x6 | x6 | x6 | x6 | x6 | x6 | x6 | [D,G,]4 z2 | x6 | x6 | x6 | x6 | x6 | x6 | x6 | %18
 [D,G,]4 z2 | x6 | x6 | x6 | x6 | x6 |[M:2/4] x4 |] %25

